symbolic/22x22/apps/dia.svg

<svg xmlns="http://www.w3.org/2000/svg" width="22" height="22" version="1">
 <path fill="#e4e4e4" d="m19 20v-18c0-0.554-0.446-1-1-1h-14c-0.554 0-1 0.446-1 1v18c0 0.554 0.446 1 1 1h14c0.554 0 1-0.446 1-1z"/>
 <path fill="none" stroke="#4f4f4f" stroke-width="2" d="m5 5h6.5s4.5011 0.035562 4.5 5.5c-0.001 5.4644-4.5 5.5-4.5 5.5h-6.5"/>
 <path fill="#fff" opacity=".2" d="m4 1c-0.554 0-1 0.446-1 1v0.5c0-0.554 0.446-1 1-1h14c0.554 0 1 0.446 1 1v-0.5c0-0.554-0.446-1-1-1z"/>
 <path fill="#4f4f4f" fill-rule="evenodd" d="m6 5v13.5h-2l3 2 3-2h-2v-13.5z"/>
 <path opacity=".2" d="m3 20v0.5c0 0.554 0.446 1 1 1h14c0.554 0 1-0.446 1-1v-0.5c0 0.554-0.446 1-1 1h-14c-0.554 0-1-0.446-1-1z"/>
</svg>

<svg xmlns="http://www.w3.org/2000/svg" width="22" height="22" version="1"><path fill="#e4e4e4" d="M19 20V2c0-.554-.446-1-1-1H4c-.554 0-1 .446-1 1v18c0 .554.446 1 1 1h14c.554 0 1-.446 1-1z"/><path fill="none" stroke="#4f4f4f" stroke-width="2" d="M5 5h6.5s4.501.036 4.5 5.5c-.001 5.464-4.5 5.5-4.5 5.5H5"/><path fill="#fff" opacity=".2" d="M4 1c-.554 0-1 .446-1 1v.5c0-.554.446-1 1-1h14c.554 0 1 .446 1 1V2c0-.554-.446-1-1-1z"/><path fill="#4f4f4f" fill-rule="evenodd" d="M6 5v13.5H4l3 2 3-2H8V5z"/><path opacity=".2" d="M3 20v.5c0 .554.446 1 1 1h14c.554 0 1-.446 1-1V20c0 .554-.446 1-1 1H4c-.554 0-1-.446-1-1z"/></svg>
